X:14
T:Miss Blairs Reel. LIT.014
M:2/4
Q:1/4=140
L:1/8
B:Wm. Litten MS, 1802
Z:Village Music Project 2017 Anne Wride
K:D
fe fd |eB dA | fe fd | B2 Bg |
fe fd | eBdA | Bd AF | D2 D2 :|
|: D/E/F/G/ AF | BG AF | Fd Fd | E2 EF |
D/E/F/G/ AF | BG AF | GB AF | D2 D2 :|

